X: 732
T: The Spell
R: reel
B: Robert Bremner "A Collection of Scots Reels or Country Dances" 1757 p.73 #2
S: http://imslp.org/wiki/A_Collection_of_Scots_Reels_or_Country_Dances_(Bremner,_Robert)
Z: 2013 John Chambers <jc:trillian.mit.edu>
M: C
L: 1/8
K: C
% - - - - - - - - - - - - - - - - - - - - - - - - -
V: 1
|:\
C2EG cGEC | C2EG FDB,G, |\
C2EG cGEC | ecGF TE2C2 :|
|:\
g>age f>gfd | e>fec (B/c/d) T^F2 |\
G2GA Bcde | fagf Te2c2 :|
% - - - - - - - - - - - - - - - - - - - - - - - - -
V: 2 clef=bass middle=d
|:\
c2c2 c2c2 | c2c2 G2G2 |\
c2c2 c2c2 | G2G2 C2C2 :|
|:\
g2g2 g2g2 | g2g2 g2g2 |\
g2g2 e2c2 | f2g2 c2c2 :|
% - - - - - - - - - - - - - - - - - - - - - - - - -

%%sep 1 1 500
%%sep 1 1 500
